X:1
T:Title
%%score { 1 | 2 }
L:1/8
M:2/4
K:D
V:1 treble nm="Grand Piano"
V:2 bass 
V:1
 z2 z[Q:1/4=100] A | A2 BA | F2 GF | [B,F]2 [B,E][B,^D] | [B,E]3 [B,E] | [CB]2 [Cc][CB] | %6
 [CA]2 [CG][CE] | [EG]2 F=F | F3 [FA] | [Fd]2 [Fe][Fd] | [FA]2 [EG][DF] | [Dc]2 [DB][D^A] | %12
 [DB]3 B | B2 cd | [Ec]2 [E^G][EA] | c2 c>B | [A,CA]4 |[M:1/8] A |[M:2/4] A2 ed | c2 [GB][Gc] | %20
 [Fd]2 F[=FB] | [FA]3 [FA] | B2 dd | d2 FF | [CA]2 [CE][CF] |[M:3/8] D3 |] %26
V:2
 z2 z [D,F,D] | [D,F,D]2 [D,G,D][D,F,D] | [D,A,D]2 [D,B,D][D,A,D] | [G,,G,]2 [G,,G,][G,,G,] | %4
 [G,,G,]3 [G,,G,] | [A,,G,]2 [A,,G,][A,,G,] | [A,,E,]2 [A,,A,][A,,A,] | [D,A,]2 [D,A,D][D,^G,D] | %8
 [D,A,D]3 [D,A,] | [D,A,]2 [D,A,][D,A,] | [D,D]2 [D,A,][D,A,] | [G,,G,]2 [G,,G,][G,,G,] | %12
 [G,,G,]3 [G,D] | [E,^G,E]2 [E,G,E][E,G,E] | [A,,A,]2 [C,A,][C,A,] | [E,A,E]2 [E,^G,E]>[E,G,D] | %16
 A,,4 |[M:1/8] A, |[M:2/4] A,2[K:treble] [A,CG][A,B,G] | [A,G]2[K:bass] [A,,A,][A,,A,] | %20
 [D,A,]2 [D,A,][D,^G,] | [D,A,]3 [D,D] | [G,DG]2 [G,B,G][G,^A,G] | [A,F]2 [A,D][K:bass][A,D] | %24
 [A,,E,]2 [A,,G,][A,,A,] |[M:3/8] [D,F,]3 |] %26

